public/avatar/hat/201.svg

<svg xmlns:xlink="http://www.w3.org/1999/xlink" height="92.9" width="100.7" xmlns="http://www.w3.org/2000/svg"><use height="23" transform="translate(20.55 42.2)" width="36.45" xlink:href="#a"/><defs><g id="a" fill-rule="evenodd"><path d="M15.45-3.7q.7 1.55.7 3.6l-.3 1.65q-.6 1.3-2.2 2.2l.75 2.8.9-.3q1.15-.05 2.05.65 1 .9 1 2.65 0 3.35-3 3.55l-1.65-.3q-3-2.15-3.5-2.25-12.9-3.3-20.15.3l-2.35 1.55-1.1.35-3.35-.15q-1.35-.9-1.35-3.05 0-2.7 2.1-3.2l1.8.1.75-2.7q-1.55-.8-2.15-2.2-.35-.75-.35-1.65 0-2.15.75-3.6 1.5-3.05 4.05-3.65 2.15-.6 4.5.8 1.05.7 1.85 1.75 2-.85 4.75-.85 2.9 0 5.05.9l1.85-1.8q1.75-1.05 3.4-1 3.25.1 5.2 3.85" transform="translate(18.1 7.55)"/><path d="M15.15-3.55q.75 1.45.75 3.45 0 .85-.35 1.55-.5 1.25-2.15 2.15l.75 3.35 1.15-.4q1.1-.05 1.85.6.9.75.9 2.4 0 3.05-2.7 3.25l-1.6-.3-1.9-.8-1.1-1.1.1 1.65q0 1.7-.35 2.25l-.25.4q-.85.85-2.75.4-2.4-.4-3-1.75-.25-.85-.25-2.5v-.55L.1 10.3l-4.65.25.05.9-.25 2.05q-.8 1.9-4.25 1.9-.95 0-1.5-.55-.6-.65-.6-3l-.05-.95-.2.35q-.5.8-.8.75l-1.35.5-3.05-.15q-1.25-.75-1.25-2.8 0-2.4 1.85-2.95l2 .3.75-3.3q-1.55-.85-2.15-2.2l-.3-1.5q0-2.1.7-3.45 1.5-2.95 3.85-3.55 2.05-.55 4.3.8l1.95 1.85q1.8-.9 4.8-.9 2.9 0 5.1.9L7-6.3q1.5-1 3.25-.95 3.1.1 4.9 3.7" transform="translate(18.1 7.55)"/><path d="m-10.25 11.75.1-2.1q1.6-3.1 4.65-.9l-.05 4.5q-.3.75-2.05 1.2l-2.25-.1q-.45-.45-.4-2.6m19.9 2.6-2.25.05q-1.75-.4-2.05-1.15l-.15-4.5 1.75-.7q1.9-.3 2.9 1.6.45 4-.2 4.7" fill="#dedde3" transform="translate(18.1 7.55)"/><path d="M9.1 13.25q.95.7.55 1.15l-2.3.05q-1.75-.4-2.05-1.15l-.1-4.5.3 1q.5 1.1 1.45 1.9l2.15 1.55M-9.4 9.7l.9 2.1q.5.5 1.9.9l1.05.55q-.3.75-2.05 1.2l-2.25-.1q-.45-.45-.4-2.6l.1-2.1q.5-.9.75.05" fill="#fff" transform="translate(18.1 7.55)"/><path d="M.1-4.75q5.3 0 9.25 3.75 3.8 3.65 3.8 8.25 0 1.8-1.05 2.85-1.55 1.35-7.1.8l-4.9-.3-4.85.3q-5.6.55-7.1-.8-1.05-1.05-1.05-1.9 0-4.2 3.8-8.4Q-4.95-4.75.1-4.75" transform="translate(18.1 7.55)"/><path d="M5.35-3.3 7.5-5.55q1.55-1 3.2-.75 2.25.4 3.7 3.2 2.2 4.25-2.05 6.3 1.15 1.65.8 4.65.6-1.1 2.25-.85 1.75.3 1.75 2.6 0 3.4-3.05 2.15-.6-1.35-2.1-2.6l-1.35-.95q-4-2.65-10.4-2.65-3.8 0-8.45 2.9l-5.65 3.3q-3.1 1.25-3.1-2.15 0-2.25 1.8-2.1 1.6.1 2.2 1.3-.2-1.75.3-3.85l.55-1.75q-4.25-2.05-2.1-6.3 1.45-2.8 3.75-3.2 1.7-.25 3.2.75 1.5 1 2.15 2.25 1.35-1.15 5.05-1.15 3.65 0 5.4 1.15" fill="#c0c2c2" transform="translate(18.1 7.55)"/><path d="m5.3-3.3 2.2-2.25q1.55-1 3.2-.75 2.25.4 3.7 3.2 2.15 4.25-2.1 6.3 1.2 2.55.85 4.65.6-1.1 2.25-.85 1.75.3 1.75 2.6 0 3.4-3.1 2.15-1.05-.15-4.3-2.6-3.5-2.5-4.8-2.9Q6.25 3.8 4.6.65 2.55-3.25-3.35-2.5q-1.05.1-2.8 2.6-2 2.85-4.9 4.05-.55-.2.25-2.05.8-1.9 2.1-3l2.2-1.5q.35-1.05-.8-3.15 1.5 1 2.15 2.25 1.4-1.15 5.05-1.15T5.3-3.3" fill="#797977" transform="translate(18.1 7.55)"/><path d="M-11.85-3.95q2.75-2.5 5.25 1.6Q-9-1.3-10.95 1.4q-4.45-2.1-.9-5.35" fill="#fff" transform="translate(18.1 7.55)"/><path d="M-7.7-1.7-9.95.15q-2.4-2.1-1.3-3.5Q-10.2-4.8-7.7-1.7" transform="translate(18.1 7.55)"/><path d="M-10.65-2.25q-.4-.8.15-1.15.55-.4 1.2.8.65 1.15-.15 1.15-.75 0-1.2-.8" fill="#fff" transform="translate(18.1 7.55)"/><path d="m-14.25 8.85.8.75-.3 1.1h-1.7q-.45-.1-.55-.9-.1-.8.4-1.25.45-.4 1.35.3" fill="#535351" transform="translate(18.1 7.55)"/><path d="M12.1-3.95q3.5 3.25-.95 5.35-1.9-2.7-4.3-3.75 2.5-4.1 5.25-1.6" fill="#fff" transform="translate(18.1 7.55)"/><path d="m7.9-1.7 1.4-1.35q1.5-1.2 2.2-.3 1.1 1.4-1.35 3.5L7.9-1.7" transform="translate(18.1 7.55)"/><path d="M10.8-2.2q-.4.8-1.15.8-.75 0-.15-1.1.6-1.15 1.15-.8.55.35.15 1.1" fill="#fff" transform="translate(18.1 7.55)"/><path d="M10.7 8.45q-.15-7.1-3.85-10.8 3.4 1.4 4.75 5.75.9 2.8.75 5.55l-1.65-.5" fill="#666" transform="translate(18.1 7.55)"/><path d="M14.45 8.85q.9-.7 1.35-.3.5.45.4 1.25-.05.8-.55.9H14l-.35-1.1.8-.75" fill="#959595" transform="translate(18.1 7.55)"/><path d="M7.1-4.85q1.1-.95 2.3-1.2 1.4-.25 2.75.65 1.15.75 1.35 1.45.05.2-1.3-.55-1.8-1.05-2.95-.7l-2.1 1.15q-.65.55-.8.35-.3-.3.75-1.15" fill="#c0c2c2" transform="translate(18.1 7.55)"/><path d="m14.5 8.85 1.3-.1q.4.4.4 1.15 0 .75-.4.8l-2.1-.3-.1-1 .9-.55" fill="#3a3a3d" transform="translate(18.1 7.55)"/><path d="M.1-4.7q5.1 0 9 3.55Q6.15 2-1.1 4.55q-8.15 2.85-10.95 4.9-.75-.8-.75-2.3 0-4 3.75-7.8Q-5-4.7.1-4.7" fill="#535351" transform="translate(18.1 7.55)"/><path d="M-5 10.35q-5.6.45-6.9-.75l-.15-.15q2.8-2.05 10.95-4.9Q6.15 2 9.1-1.15q3.95 3.65 3.95 8.3 0 1.65-.95 2.45-1.25 1.2-6.9.75l-5.1-.3-5.1.3" fill="#3a3a3d" transform="translate(18.1 7.55)"/><path d="M.1-4.15q5.15 0 8.85 3.65 3.5 3.45 3.5 7.65 0 2.8-3.6 2.8L.1 9.45l-8.7.5q-3.6 0-3.6-2.8 0-3.7 3.5-7.3 3.85-4 8.8-4" fill="#c0c2c2" transform="translate(18.1 7.55)"/><path d="M4.05-2.65q1.9.85 2.5 1.95.6 1.05-.85.9Q2.8-.1.45 3.25q-2.8 3.95-3.15 4.1-1.9.75-4.5.9-3 .15-3.8-.95-.9-1.25.15-3.65Q-9.7 1.1-7-.95q5.6-4.15 11.05-1.7" fill="#dedde3" transform="translate(18.1 7.55)"/><path d="M-6.6-.65q1.35-.8 1.85-.2.45.6-.25 1.2-2.2 1.75-2.6 1.2-.65-1.15 1-2.2m12.85 0q1.55 1.05.9 2.2-.35.55-2.5-1.2-.7-.6-.2-1.2.5-.6 1.8.2" fill="#3a3a3d" transform="translate(18.1 7.55)"/><path d="M-6.75-.6q1.8-1.1 1.8-.35-.85.5-1.75.95l-.8 1.35q-.35-.05-.15-.8.25-.75.9-1.15M6.3-.55q.65.4.9 1.15.2.75-.15.75Q7.1.7 6.25 0q-1.7-.7-1.7-.9 0-.8 1.75.35" fill="#959597" transform="translate(18.1 7.55)"/><path d="M5.2 6.05q1.15-1.6 1.55-1.6 1.55.05 2.1-2.1.4-1.7.7-1.35.95 1.05 1.7 3.65.9 2.9.05 4-.75 1-4.45.85L.6 9.1l-10.05.4q-.4-.35 3.05-.65l7.4-.7q2.95-.4 4.2-2.1" fill="#9a9a9f" transform="translate(18.1 7.55)"/></g></defs></svg>

<?xml version="1.0" encoding="UTF-8" standalone="no"?>
<svg xmlns:xlink="http://www.w3.org/1999/xlink" height="92.9px" width="100.7px" xmlns="http://www.w3.org/2000/svg">
  <g transform="matrix(1.0, 0.0, 0.0, 1.0, 38.65, 49.75)">
    <use height="23.0" transform="matrix(1.0, 0.0, 0.0, 1.0, -18.1, -7.55)" width="36.45" xlink:href="#shape0"/>
  </g>
  <defs>
    <g id="shape0" transform="matrix(1.0, 0.0, 0.0, 1.0, 18.1, 7.55)">
      <path d="M15.45 -3.7 Q16.15 -2.15 16.15 -0.1 L15.85 1.55 Q15.25 2.85 13.65 3.75 L14.4 6.55 15.3 6.25 Q16.45 6.2 17.35 6.9 18.35 7.8 18.35 9.55 18.35 12.9 15.35 13.1 L13.7 12.8 Q10.7 10.65 10.2 10.55 -2.7 7.25 -9.95 10.85 L-12.3 12.4 -13.4 12.75 -16.75 12.6 Q-18.1 11.7 -18.1 9.55 -18.1 6.85 -16.0 6.35 L-14.2 6.45 -13.45 3.75 Q-15.0 2.95 -15.6 1.55 -15.95 0.8 -15.95 -0.1 -15.95 -2.25 -15.2 -3.7 -13.7 -6.75 -11.15 -7.35 -9.0 -7.95 -6.65 -6.55 -5.6 -5.85 -4.8 -4.8 -2.8 -5.65 -0.05 -5.65 2.85 -5.65 5.0 -4.75 L6.85 -6.55 Q8.6 -7.6 10.25 -7.55 13.5 -7.45 15.45 -3.7" fill="#000000" fill-rule="evenodd" stroke="none"/>
      <path d="M15.15 -3.55 Q15.9 -2.1 15.9 -0.1 15.9 0.75 15.55 1.45 15.05 2.7 13.4 3.6 L14.15 6.95 15.3 6.55 Q16.4 6.5 17.15 7.15 18.05 7.9 18.05 9.55 18.05 12.6 15.35 12.8 L13.75 12.5 11.85 11.7 10.75 10.6 10.85 12.25 Q10.85 13.95 10.5 14.5 L10.25 14.9 Q9.4 15.75 7.5 15.3 5.1 14.9 4.5 13.55 4.25 12.7 4.25 11.05 L4.25 10.5 0.1 10.3 -4.55 10.55 -4.5 11.45 -4.75 13.5 Q-5.55 15.4 -9.0 15.4 -9.95 15.4 -10.5 14.85 -11.1 14.2 -11.1 11.85 L-11.15 10.9 -11.35 11.25 Q-11.85 12.05 -12.15 12.0 L-13.5 12.5 -16.55 12.35 Q-17.8 11.6 -17.8 9.55 -17.8 7.15 -15.95 6.6 L-13.95 6.9 -13.2 3.6 Q-14.75 2.75 -15.35 1.4 L-15.65 -0.1 Q-15.65 -2.2 -14.95 -3.55 -13.45 -6.5 -11.1 -7.1 -9.05 -7.65 -6.8 -6.3 L-4.85 -4.45 Q-3.05 -5.35 -0.05 -5.35 2.85 -5.35 5.05 -4.45 L7.0 -6.3 Q8.5 -7.3 10.25 -7.25 13.35 -7.15 15.15 -3.55" fill="#000000" fill-rule="evenodd" stroke="none"/>
      <path d="M-10.25 11.75 L-10.15 9.65 Q-8.55 6.55 -5.5 8.75 L-5.55 13.25 Q-5.85 14.0 -7.6 14.45 L-9.85 14.35 Q-10.3 13.9 -10.25 11.75" fill="#dedde3" fill-rule="evenodd" stroke="none"/>
      <path d="M9.65 14.35 L7.4 14.4 Q5.65 14.0 5.35 13.25 L5.2 8.75 6.95 8.05 Q8.85 7.75 9.85 9.65 10.3 13.65 9.65 14.35" fill="#dedde3" fill-rule="evenodd" stroke="none"/>
      <path d="M9.1 13.25 Q10.05 13.95 9.65 14.4 L7.35 14.45 Q5.6 14.05 5.3 13.3 L5.2 8.8 5.5 9.8 Q6.0 10.9 6.95 11.7 L9.1 13.25" fill="#ffffff" fill-rule="evenodd" stroke="none"/>
      <path d="M-9.4 9.7 L-8.5 11.8 Q-8.0 12.3 -6.6 12.7 L-5.55 13.25 Q-5.85 14.0 -7.6 14.45 L-9.85 14.35 Q-10.3 13.9 -10.25 11.75 L-10.15 9.65 Q-9.65 8.75 -9.4 9.7" fill="#ffffff" fill-rule="evenodd" stroke="none"/>
      <path d="M0.1 -4.75 Q5.4 -4.75 9.35 -1.0 13.15 2.65 13.15 7.25 13.15 9.05 12.1 10.1 10.55 11.45 5.0 10.9 L0.1 10.6 -4.75 10.9 Q-10.35 11.45 -11.85 10.1 -12.9 9.05 -12.9 8.2 -12.9 4.0 -9.1 -0.2 -4.95 -4.75 0.1 -4.75" fill="#000000" fill-rule="evenodd" stroke="none"/>
      <path d="M5.35 -3.3 L7.5 -5.55 Q9.05 -6.55 10.7 -6.3 12.95 -5.9 14.4 -3.1 16.6 1.15 12.35 3.2 13.5 4.85 13.15 7.85 13.75 6.75 15.4 7.0 17.15 7.3 17.15 9.6 17.15 13.0 14.1 11.75 13.5 10.4 12.0 9.15 L10.65 8.2 Q6.65 5.55 0.25 5.55 -3.55 5.55 -8.2 8.45 L-13.85 11.75 Q-16.95 13.0 -16.95 9.6 -16.95 7.35 -15.15 7.5 -13.55 7.6 -12.95 8.8 -13.15 7.05 -12.65 4.95 L-12.1 3.2 Q-16.35 1.15 -14.2 -3.1 -12.75 -5.9 -10.45 -6.3 -8.75 -6.55 -7.25 -5.55 -5.75 -4.55 -5.1 -3.3 -3.75 -4.45 -0.05 -4.45 3.6 -4.45 5.35 -3.3" fill="#c0c2c2" fill-rule="evenodd" stroke="none"/>
      <path d="M5.3 -3.3 L7.5 -5.55 Q9.05 -6.55 10.7 -6.3 12.95 -5.9 14.4 -3.1 16.55 1.15 12.3 3.2 13.5 5.75 13.15 7.85 13.75 6.75 15.4 7.0 17.15 7.3 17.15 9.6 17.15 13.0 14.05 11.75 13.0 11.6 9.75 9.15 6.25 6.65 4.95 6.25 6.25 3.8 4.6 0.65 2.55 -3.25 -3.35 -2.5 -4.4 -2.4 -6.15 0.1 -8.15 2.95 -11.05 4.15 -11.6 3.95 -10.8 2.1 -10.0 0.2 -8.7 -0.9 L-6.5 -2.4 Q-6.15 -3.45 -7.3 -5.55 -5.8 -4.55 -5.15 -3.3 -3.75 -4.45 -0.1 -4.45 3.55 -4.45 5.3 -3.3" fill="#797977" fill-rule="evenodd" stroke="none"/>
      <path d="M-11.85 -3.95 Q-9.1 -6.45 -6.6 -2.35 -9.0 -1.3 -10.95 1.4 -15.4 -0.7 -11.85 -3.95" fill="#ffffff" fill-rule="evenodd" stroke="none"/>
      <path d="M-7.7 -1.7 L-9.95 0.15 Q-12.35 -1.95 -11.25 -3.35 -10.2 -4.8 -7.7 -1.7" fill="#000000" fill-rule="evenodd" stroke="none"/>
      <path d="M-10.65 -2.25 Q-11.05 -3.05 -10.5 -3.4 -9.95 -3.8 -9.3 -2.6 -8.65 -1.45 -9.45 -1.45 -10.2 -1.45 -10.65 -2.25" fill="#ffffff" fill-rule="evenodd" stroke="none"/>
      <path d="M-14.25 8.85 L-13.45 9.6 -13.75 10.7 -15.45 10.7 Q-15.9 10.6 -16.0 9.8 -16.1 9.0 -15.6 8.55 -15.15 8.15 -14.25 8.85" fill="#535351" fill-rule="evenodd" stroke="none"/>
      <path d="M12.1 -3.95 Q15.6 -0.7 11.15 1.4 9.25 -1.3 6.85 -2.35 9.35 -6.45 12.1 -3.95" fill="#ffffff" fill-rule="evenodd" stroke="none"/>
      <path d="M7.9 -1.7 L9.3 -3.05 Q10.8 -4.25 11.5 -3.35 12.6 -1.95 10.15 0.15 L7.9 -1.7" fill="#000000" fill-rule="evenodd" stroke="none"/>
      <path d="M10.8 -2.2 Q10.4 -1.4 9.65 -1.4 8.9 -1.4 9.5 -2.5 10.1 -3.65 10.65 -3.3 11.2 -2.95 10.8 -2.2" fill="#ffffff" fill-rule="evenodd" stroke="none"/>
      <path d="M10.7 8.45 Q10.55 1.35 6.85 -2.35 10.25 -0.95 11.6 3.4 12.5 6.2 12.35 8.95 L10.7 8.45" fill="#666666" fill-rule="evenodd" stroke="none"/>
      <path d="M14.45 8.85 Q15.35 8.15 15.8 8.55 16.3 9.0 16.2 9.8 16.15 10.6 15.65 10.7 L14.0 10.7 13.65 9.6 14.45 8.85" fill="#959595" fill-rule="evenodd" stroke="none"/>
      <path d="M7.1 -4.85 Q8.2 -5.8 9.4 -6.05 10.8 -6.3 12.15 -5.4 13.3 -4.65 13.5 -3.95 13.55 -3.75 12.2 -4.5 10.4 -5.55 9.25 -5.2 L7.15 -4.05 Q6.5 -3.5 6.35 -3.7 6.05 -4.0 7.1 -4.85" fill="#c0c2c2" fill-rule="evenodd" stroke="none"/>
      <path d="M14.5 8.85 L15.8 8.75 Q16.2 9.15 16.2 9.9 16.2 10.65 15.8 10.7 L13.7 10.4 13.6 9.4 14.5 8.85" fill="#3a3a3d" fill-rule="evenodd" stroke="none"/>
      <path d="M0.1 -4.7 Q5.2 -4.7 9.1 -1.15 6.15 2.0 -1.1 4.55 -9.25 7.4 -12.05 9.45 -12.8 8.65 -12.8 7.15 -12.8 3.15 -9.05 -0.65 -5.0 -4.7 0.1 -4.7" fill="#535351" fill-rule="evenodd" stroke="none"/>
      <path d="M-5.0 10.35 Q-10.6 10.8 -11.9 9.6 L-12.05 9.45 Q-9.25 7.4 -1.1 4.55 6.15 2.0 9.1 -1.15 13.05 2.5 13.05 7.15 13.05 8.8 12.1 9.6 10.85 10.8 5.2 10.35 L0.1 10.05 -5.0 10.35" fill="#3a3a3d" fill-rule="evenodd" stroke="none"/>
      <path d="M0.1 -4.15 Q5.25 -4.15 8.95 -0.5 12.45 2.95 12.45 7.15 12.45 9.95 8.85 9.95 L0.1 9.45 -8.6 9.95 Q-12.2 9.95 -12.2 7.15 -12.2 3.45 -8.7 -0.15 -4.85 -4.15 0.1 -4.15" fill="#c0c2c2" fill-rule="evenodd" stroke="none"/>
      <path d="M4.05 -2.65 Q5.95 -1.8 6.55 -0.7 7.15 0.35 5.7 0.2 2.8 -0.1 0.45 3.25 -2.35 7.2 -2.7 7.35 -4.6 8.1 -7.2 8.25 -10.2 8.4 -11.0 7.3 -11.9 6.05 -10.85 3.65 -9.7 1.1 -7.0 -0.95 -1.4 -5.1 4.05 -2.65" fill="#dedde3" fill-rule="evenodd" stroke="none"/>
      <path d="M-6.6 -0.65 Q-5.25 -1.45 -4.75 -0.85 -4.3 -0.25 -5.0 0.35 -7.2 2.1 -7.6 1.55 -8.25 0.4 -6.6 -0.65" fill="#3a3a3d" fill-rule="evenodd" stroke="none"/>
      <path d="M6.25 -0.65 Q7.8 0.4 7.15 1.55 6.8 2.1 4.65 0.35 3.95 -0.25 4.45 -0.85 4.95 -1.45 6.25 -0.65" fill="#3a3a3d" fill-rule="evenodd" stroke="none"/>
      <path d="M-6.75 -0.6 Q-4.95 -1.7 -4.95 -0.95 -5.8 -0.45 -6.7 0.0 L-7.5 1.35 Q-7.85 1.3 -7.65 0.55 -7.4 -0.2 -6.75 -0.6" fill="#959597" fill-rule="evenodd" stroke="none"/>
      <path d="M6.3 -0.55 Q6.95 -0.15 7.2 0.6 7.4 1.35 7.05 1.35 7.1 0.7 6.25 0.0 4.55 -0.7 4.55 -0.9 4.55 -1.7 6.3 -0.55" fill="#959597" fill-rule="evenodd" stroke="none"/>
      <path d="M5.2 6.05 Q6.35 4.45 6.75 4.45 8.3 4.5 8.85 2.35 9.25 0.65 9.55 1.0 10.5 2.05 11.25 4.65 12.15 7.55 11.3 8.65 10.55 9.65 6.85 9.5 L0.6 9.1 -9.45 9.5 Q-9.85 9.15 -6.4 8.85 L1.0 8.15 Q3.95 7.75 5.2 6.05" fill="#9a9a9f" fill-rule="evenodd" stroke="none"/>
    </g>
  </defs>
</svg>
